X:1
T:Shake Sugaree
M:4/4
L:1/4
K:C
 G/2| G3/2 G/2 G A| E2 z2| z G2 A| E2 z2| z A2 A| F2 z2| z A2 A| F2|\
 z2| A2 G/2 A c/2-| c z A/2A/2 A| G2 A/2 G3/2| C2 z2| E E/2 G/2- G A|\
 E C D D| C4| z4| E E/2 G/2- G A| E C D D| C4| z2 z z/2||
